assets/svgs/icon-download.svg

<svg width="32" height="32" viewBox="0 0 32 32" fill="none" xmlns="http://www.w3.org/2000/svg">
    <path d="M15.958 5.99992V21.0327" stroke="#0B6AB7" stroke-width="1.5" stroke-linecap="square" stroke-linejoin="round" class="svg__stroke--primary-blue-03"/>
    <path d="m7.48562 14.4725-.53033-.5303 1.06066-1.0607.53033.5303-1.06066 1.0607Zm8.47218 7.4115.5303.5304-.5303.5303-.5303-.5303.5303-.5304Zm7.4115-8.4722.5304-.5303 1.0606 1.0607-.5303.5303-1.0607-1.0607Zm-14.82302 0 7.94182 7.9419-1.0606 1.0607-7.94188-7.9419 1.06066-1.0607Zm6.88122 7.9419 7.9418-7.9419 1.0607 1.0607-7.9419 7.9419-1.0606-1.0607Z" fill="#0B6AB7" class="svg__fill--primary-blue-03"/>
    <path d="M8.44116 25.8755H23.4412" stroke="#0AA5FF" stroke-width="1.5" class="svg__stroke--default-cyan-03"/>
  </svg>

<svg width="32" height="32" viewBox="0 0 32 32" fill="none" xmlns="http://www.w3.org/2000/svg">
<path d="M15.958 5.99992L15.958 21.0327" stroke="#0B6AB7" stroke-width="1.5" stroke-linecap="square" stroke-linejoin="round"/>
<path d="M7.48562 14.4725L6.95529 13.9422L8.01595 12.8815L8.54628 13.4118L7.48562 14.4725ZM15.9578 21.884L16.4881 22.4144L15.9578 22.9447L15.4275 22.4144L15.9578 21.884ZM23.3693 13.4118L23.8997 12.8815L24.9603 13.9422L24.43 14.4725L23.3693 13.4118ZM8.54628 13.4118L16.4881 21.3537L15.4275 22.4144L7.48562 14.4725L8.54628 13.4118ZM15.4275 21.3537L23.3693 13.4118L24.43 14.4725L16.4881 22.4144L15.4275 21.3537Z" fill="#0B6AB7"/>
<path d="M8.44116 25.8755H23.4412" stroke="#0AA5FF" stroke-width="1.5"/>
</svg>
